source/asset/images/icons/icon-heart.svg

<svg width="24" height="24" viewBox="0 0 24 24" fill="none" xmlns="http://www.w3.org/2000/svg">
<path d="M17.9205 7.06089C17.5784 6.72455 17.1722 6.45775 16.7252 6.27572C16.2782 6.09369 15.799 6 15.3151 6C14.8312 6 14.3521 6.09369 13.905 6.27572C13.458 6.45775 13.0518 6.72455 12.7098 7.06089L11.9998 7.75857L11.2899 7.06089C10.5989 6.38184 9.66172 6.00035 8.68453 6.00035C7.70733 6.00035 6.77016 6.38184 6.07917 7.06089C5.38819 7.73994 5 8.66092 5 9.62124C5 10.5816 5.38819 11.5026 6.07917 12.1816L6.78911 12.8793L11.9998 18L17.2105 12.8793L17.9205 12.1816C18.2627 11.8454 18.5342 11.4463 18.7194 11.007C18.9047 10.5677 19 10.0968 19 9.62124C19 9.14571 18.9047 8.67484 18.7194 8.23552C18.5342 7.79621 18.2627 7.39706 17.9205 7.06089V7.06089Z" stroke="#D0BC7A" stroke-width="1.5"/>
</svg>

<svg width="24" height="24" viewBox="0 0 24 24" fill="none" xmlns="http://www.w3.org/2000/svg"><path d="M17.92 7.06a3.69 3.69 0 00-1.195-.784 3.74 3.74 0 00-4.015.785l-.71.698-.71-.698A3.718 3.718 0 008.685 6c-.978 0-1.915.38-2.606 1.06A3.59 3.59 0 005 9.62c0 .96.388 1.882 1.08 2.56l.71.698L12 18l5.21-5.12.71-.698c.343-.337.614-.736.8-1.175a3.565 3.565 0 000-2.771 3.617 3.617 0 00-.8-1.175v0z" stroke="#D0BC7A" stroke-width="1.5"/></svg>
